docs/assets/id_mark_free_move.svg

<svg xmlns="http://www.w3.org/2000/svg" viewBox="0 0 74.94824 74.94824"><defs><style>.cls-1{fill:#fff;}.cls-2{fill:#c7d932;}.cls-3{fill:#6bb72d;}.cls-4{fill:none;}</style></defs><title>アセット 6302</title><g id="レイヤー_2" data-name="レイヤー 2"><g id="レイヤー_2-2" data-name="レイヤー 2"><path class="cls-1" d="M29.88153,4.99992h15.1856A24.88129,24.88129,0,0,1,69.94842,29.8812V45.0661a24.882,24.882,0,0,1-24.882,24.882H29.88224a24.882,24.882,0,0,1-24.882-24.882V29.8812A24.88129,24.88129,0,0,1,29.88153,4.99992Z"/><path class="cls-2" d="M32.70657,50.54847c-.20108,2.787-2.14947,4.44115-4.35006,3.695-2.19921-.74685-3.82111-3.61232-3.61863-6.39932s2.14947-4.44254,4.35006-3.695,3.82109,3.6123,3.61863,6.3993"/><path class="cls-3" d="M29.40137,54.90527a3.72516,3.72516,0,0,1-1.2002-.2041c-2.39355-.81152-4.16308-3.90429-3.94531-6.89258a4.81352,4.81352,0,0,1,1.93652-3.76269,3.416,3.416,0,0,1,3.05078-.35449c2.39258.8125,4.16309,3.90429,3.94629,6.89257a4.812,4.812,0,0,1-1.93359,3.76075A3.322,3.322,0,0,1,29.40137,54.90527ZM28.03906,44.45312a2.34985,2.34985,0,0,0-1.3125.39844,3.87139,3.87139,0,0,0-1.50586,3.02735c-.1875,2.57714,1.28907,5.22656,3.291,5.90625a2.4473,2.4473,0,0,0,2.209-.24707,3.86257,3.86257,0,0,0,1.50391-3.02442h0c.18652-2.57715-1.29-5.22656-3.292-5.90625A2.77117,2.77117,0,0,0,28.03906,44.45312Z"/><polygon class="cls-1" points="37.474 57.238 19.966 48.37 19.966 31.118 37.474 39.673 37.474 57.238"/><path class="cls-3" d="M37.47461,57.7207a.48036.48036,0,0,1-.21875-.05175L19.74707,48.80176a.48368.48368,0,0,1-.26465-.43164v-17.252a.48348.48348,0,0,1,.69531-.43457l17.50879,8.55469a.48228.48228,0,0,1,.27149.43457V57.2373a.483.483,0,0,1-.4834.4834ZM20.44922,48.07324l16.542,8.377V39.97461l-16.542-8.082Z"/><polygon class="cls-1" points="54.983 31.118 37.474 39.673 37.474 57.238 54.983 48.37 54.983 31.118"/><path class="cls-3" d="M37.47461,57.7207a.483.483,0,0,1-.4834-.4834V39.67285a.48228.48228,0,0,1,.27149-.43457l17.50878-8.55469a.48348.48348,0,0,1,.69532.43457v17.252a.48368.48368,0,0,1-.26465.43164L37.69336,57.669A.48039.48039,0,0,1,37.47461,57.7207Zm.4834-17.74609V56.4502l16.542-8.377V31.89258Z"/><polygon class="cls-1" points="37.474 39.673 54.983 31.117 37.474 22.688 19.966 31.117 37.474 39.673"/><path class="cls-3" d="M37.47461,40.15625a.47447.47447,0,0,1-.21191-.04883L19.75391,31.55176a.48358.48358,0,0,1,.00195-.87012L37.26465,22.252a.48016.48016,0,0,1,.41992,0l17.50879,8.42969a.48358.48358,0,0,1,.002.87012L37.68652,40.10742A.47447.47447,0,0,1,37.47461,40.15625ZM21.07422,31.12012l16.40039,8.01465L53.875,31.12012,37.47461,23.22461Z"/><path class="cls-1" d="M33.69458,18.33991a5.36356,5.36356,0,0,1,7.55951,0"/><path class="cls-3" d="M41.25391,18.82324a.48611.48611,0,0,1-.34082-.13965,4.8792,4.8792,0,0,0-6.87793,0,.48407.48407,0,1,1-.68164-.6875,5.85063,5.85063,0,0,1,8.24121,0,.4834.4834,0,0,1-.34082.82715Z"/><path class="cls-1" d="M42.96729,15.68119a8.47136,8.47136,0,0,0-10.98689,0"/><path class="cls-3" d="M42.96777,16.165a.47737.47737,0,0,1-.31347-.11524,7.98539,7.98539,0,0,0-10.36035,0,.48354.48354,0,1,1-.627-.73632,8.95335,8.95335,0,0,1,11.61426,0,.48341.48341,0,0,1-.31348.85156Z"/><path class="cls-1" d="M60.62217,47.65266a5.36318,5.36318,0,0,1-4.40191,6.14641"/><path class="cls-3" d="M56.21973,54.28223a.48333.48333,0,0,1-.07911-.96,4.88046,4.88046,0,0,0,4.00391-5.59278.48374.48374,0,0,1,.40039-.55469.49287.49287,0,0,1,.55469.4004,5.84489,5.84489,0,0,1-4.79883,6.70019A.44694.44694,0,0,1,56.21973,54.28223Z"/><path class="cls-1" d="M57.38474,56.741a8.47069,8.47069,0,0,0,6.39651-8.932"/><path class="cls-3" d="M57.38477,57.22461a.48371.48371,0,0,1-.11719-.95313,7.98627,7.98627,0,0,0,6.03125-8.42285.48408.48408,0,0,1,.96484-.08008A8.9569,8.9569,0,0,1,57.502,57.21094.486.486,0,0,1,57.38477,57.22461Z"/><path class="cls-1" d="M14.80508,47.65266a5.36435,5.36435,0,0,0,4.4026,6.14641"/><path class="cls-3" d="M19.209,54.28223a.44694.44694,0,0,1-.08105-.00684,5.84486,5.84486,0,0,1-4.80078-6.70019.48373.48373,0,1,1,.95508.15429,4.88043,4.88043,0,0,0,4.00586,5.59278.48333.48333,0,0,1-.07911.96Z"/><path class="cls-1" d="M18.04375,56.741a8.47214,8.47214,0,0,1-6.39723-8.932"/><path class="cls-3" d="M18.044,57.22461a.486.486,0,0,1-.11719-.01367,8.95641,8.95641,0,0,1-6.7627-9.44239.497.497,0,0,1,.52246-.44238.48509.48509,0,0,1,.44239.52246,7.98575,7.98575,0,0,0,6.03222,8.42285.48371.48371,0,0,1-.11718.95313Z"/><path class="cls-2" d="M45.06543,71.56152H29.87891A26.52439,26.52439,0,0,1,3.38477,45.06641V29.88086A26.52334,26.52334,0,0,1,29.87891,3.3877H45.06543A26.52231,26.52231,0,0,1,71.55762,29.88086V45.06641A26.52335,26.52335,0,0,1,45.06543,71.56152ZM29.87891,6.61328A23.29376,23.29376,0,0,0,6.61035,29.88086V45.06641A23.29481,23.29481,0,0,0,29.87891,68.33594H45.06543A23.29439,23.29439,0,0,0,68.332,45.06641V29.88086A23.29335,23.29335,0,0,0,45.06543,6.61328Z"/><path class="cls-4" d="M29.88086,0H45.06641A29.88184,29.88184,0,0,1,74.94824,29.88184V45.06641A29.88184,29.88184,0,0,1,45.06641,74.94824H29.88086A29.88086,29.88086,0,0,1,0,45.06738V29.88086A29.88086,29.88086,0,0,1,29.88086,0Z"/><rect class="cls-4" x="5.00046" y="5.0002" width="64.94817" height="64.94817" rx="24.88129"/></g></g></svg>

<svg xmlns="http://www.w3.org/2000/svg" viewBox="0 0 74.948 74.948"><defs><style>.cls-1{fill:#fff}.cls-2{fill:#c7d932}.cls-3{fill:#6bb72d}.cls-4{fill:none}</style></defs><g id="レイヤー_2" data-name="レイヤー 2"><g id="レイヤー_2-2" data-name="レイヤー 2"><path class="cls-1" d="M29.882 5h15.185a24.881 24.881 0 0124.881 24.88v15.185a24.882 24.882 0 01-24.882 24.882H29.882A24.882 24.882 0 015 45.066V29.881A24.881 24.881 0 0129.882 5z"/><path class="cls-2" d="M32.707 50.548c-.202 2.787-2.15 4.442-4.35 3.695-2.2-.746-3.822-3.612-3.62-6.399s2.15-4.442 4.35-3.695 3.822 3.612 3.62 6.4"/><path class="cls-3" d="M29.401 54.905a3.725 3.725 0 01-1.2-.204c-2.393-.811-4.163-3.904-3.945-6.892a4.814 4.814 0 011.936-3.763 3.416 3.416 0 013.051-.355c2.393.813 4.163 3.905 3.946 6.893a4.812 4.812 0 01-1.933 3.76 3.322 3.322 0 01-1.855.561zM28.04 44.453a2.35 2.35 0 00-1.312.399 3.871 3.871 0 00-1.506 3.027c-.188 2.577 1.289 5.226 3.29 5.906a2.447 2.447 0 002.21-.247 3.863 3.863 0 001.504-3.024c.186-2.577-1.29-5.227-3.292-5.907a2.771 2.771 0 00-.894-.154z"/><path class="cls-1" d="M37.474 57.238L19.966 48.37V31.118l17.508 8.555v17.565z"/><path class="cls-3" d="M37.475 57.72a.48.48 0 01-.22-.051l-17.508-8.867a.484.484 0 01-.265-.432V31.118a.483.483 0 01.696-.434l17.509 8.554a.482.482 0 01.271.435v17.564a.483.483 0 01-.483.484zm-17.026-9.647l16.542 8.377V39.975L20.45 31.893z"/><path class="cls-1" d="M54.983 31.118l-17.509 8.555v17.565l17.509-8.868V31.118z"/><path class="cls-3" d="M37.475 57.72a.483.483 0 01-.484-.483V39.673a.482.482 0 01.272-.435l17.508-8.554a.483.483 0 01.696.434V48.37a.484.484 0 01-.265.432l-17.509 8.867a.48.48 0 01-.218.052zm.483-17.745V56.45L54.5 48.073v-16.18z"/><path class="cls-1" d="M37.474 39.673l17.509-8.556-17.509-8.429-17.508 8.429 17.508 8.556z"/><path class="cls-3" d="M37.475 40.156a.474.474 0 01-.212-.049l-17.51-8.555a.484.484 0 01.003-.87l17.509-8.43a.48.48 0 01.42 0l17.508 8.43a.484.484 0 01.002.87l-17.508 8.555a.474.474 0 01-.212.05zm-16.4-9.036l16.4 8.015 16.4-8.015-16.4-7.895z"/><path class="cls-1" d="M33.695 18.34a5.364 5.364 0 017.56 0"/><path class="cls-3" d="M41.254 18.823a.486.486 0 01-.34-.14 4.88 4.88 0 00-6.879 0 .484.484 0 11-.681-.687 5.85 5.85 0 018.24 0 .483.483 0 01-.34.827z"/><path class="cls-1" d="M42.967 15.681a8.471 8.471 0 00-10.987 0"/><path class="cls-3" d="M42.968 16.165a.477.477 0 01-.314-.115 7.985 7.985 0 00-10.36 0 .484.484 0 11-.627-.737 8.953 8.953 0 0111.614 0 .483.483 0 01-.313.852z"/><path class="cls-1" d="M60.622 47.653a5.363 5.363 0 01-4.402 6.146"/><path class="cls-3" d="M56.22 54.282a.483.483 0 01-.08-.96 4.88 4.88 0 004.005-5.593.484.484 0 01.4-.554.493.493 0 01.555.4 5.845 5.845 0 01-4.8 6.7.447.447 0 01-.08.007z"/><path class="cls-1" d="M57.385 56.741a8.47 8.47 0 006.396-8.932"/><path class="cls-3" d="M57.385 57.225a.484.484 0 01-.117-.954 7.986 7.986 0 006.03-8.422.484.484 0 01.966-.08 8.957 8.957 0 01-6.762 9.442.486.486 0 01-.117.014z"/><path class="cls-1" d="M14.805 47.653a5.364 5.364 0 004.403 6.146"/><path class="cls-3" d="M19.209 54.282a.447.447 0 01-.081-.007 5.845 5.845 0 01-4.8-6.7.484.484 0 11.954.154 4.88 4.88 0 004.006 5.593.483.483 0 01-.079.96z"/><path class="cls-1" d="M18.044 56.741a8.472 8.472 0 01-6.397-8.932"/><path class="cls-3" d="M18.044 57.225a.486.486 0 01-.117-.014 8.956 8.956 0 01-6.763-9.442.497.497 0 01.523-.443.485.485 0 01.442.523 7.986 7.986 0 006.032 8.422.484.484 0 01-.117.954z"/><path class="cls-2" d="M45.065 71.562H29.88A26.524 26.524 0 013.385 45.066V29.881A26.523 26.523 0 0129.879 3.388h15.186A26.522 26.522 0 0171.558 29.88v15.185a26.523 26.523 0 01-26.493 26.496zM29.88 6.613A23.294 23.294 0 006.61 29.881v15.185a23.295 23.295 0 0023.269 23.27h15.186a23.294 23.294 0 0023.267-23.27V29.881A23.293 23.293 0 0045.065 6.613z"/><path class="cls-4" d="M29.88 0h15.186a29.882 29.882 0 0129.882 29.882v15.184a29.882 29.882 0 01-29.882 29.882H29.881A29.88 29.88 0 010 45.068V29.88A29.88 29.88 0 0129.88 0z"/><rect class="cls-4" x="5" y="5" width="64.948" height="64.948" rx="24.881"/></g></g></svg>
